X: 0
T: The First Good Joy That Mary Had
Z: Traditional
Z: Copyright © 2004 Douglas D. Anderson
Z: Released To The Public Domain
L: 1/4
M: 6/8
Q: 1/4=90
V: P1 name="Staff"
%%MIDI program 1 19
K: G
[V: P1]  D/ | G G/ G A/ | B A/ G G/ | A A/ F F/ | (G3/ G) D/ | G G/ G A/ | B A/ G G/ | A A/ (F/ E/) F/ | (G3/ G)"^Chorus" G/ | A A/ A A/ | A B/ (c/ B/) A/ | B B/ B A/ | (B c/ d) (d/4 c/4) | B A/ G c/ | B A/ G G/ | A A/ (F/ E/) F/ | G3/z3/|]
w: The first good joy that Ma- ry had, It was the joy of one;_ To see the bless- ed Je- sus Christ When he was first_ her son:_ When he was first her son, Good Lord;_ And hap- py may we be,__ Both_ Fa- ther, Son, and Ho- ly Ghost, To all e- ter_ ni ty.

